static/img/background/safespring-ai-background.svg

<svg xmlns="http://www.w3.org/2000/svg" xmlns:xlink="http://www.w3.org/1999/xlink" width="800" height="800" viewBox="0 0 800 800"><defs><radialGradient id="a" cx="2.411" cy="1.417" r="2.475" gradientTransform="translate(0 -0.007) scale(1 0.963)" gradientUnits="objectBoundingBox"><stop offset="0" stop-color="#3c9bcd"/><stop offset="1" stop-color="#e7eff3"/></radialGradient><radialGradient id="b" cx="0.5" cy="0.5" r="0.5" gradientUnits="objectBoundingBox"><stop offset="0" stop-color="#fff"/><stop offset="1" stop-color="#fff" stop-opacity="0"/></radialGradient><clipPath id="d"><rect width="800" height="800"/></clipPath></defs><g id="c" clip-path="url(#d)"><rect width="800" height="800" fill="url(#a)"/><circle cx="322" cy="322" r="322" transform="translate(-77 -13)" opacity="0.888" fill="url(#b)"/><g transform="translate(474.758 387.859)"><path d="M66.809,9.11a9.11,9.11,0,1,0-18.221,0V24.294A24.317,24.317,0,0,0,24.294,48.588H9.11a9.11,9.11,0,1,0,0,18.221H24.294V88.066H9.11a9.11,9.11,0,0,0,0,18.221H24.294v21.257H9.11a9.11,9.11,0,0,0,0,18.221H24.294a24.317,24.317,0,0,0,24.294,24.294v15.184a9.11,9.11,0,0,0,18.221,0V170.059H88.066v15.184a9.11,9.11,0,0,0,18.221,0V170.059h21.257v15.184a9.11,9.11,0,0,0,18.221,0V170.059a24.317,24.317,0,0,0,24.294-24.294h15.184a9.11,9.11,0,0,0,0-18.221H170.059V106.287h15.184a9.11,9.11,0,0,0,0-18.221H170.059V66.809h15.184a9.11,9.11,0,0,0,0-18.221H170.059a24.317,24.317,0,0,0-24.294-24.294V9.11a9.11,9.11,0,0,0-18.221,0V24.294H106.287V9.11a9.11,9.11,0,0,0-18.221,0V24.294H66.809Zm12.147,57.7a6.119,6.119,0,0,1,5.58,3.644l15.943,36.441,5.314,12.147a6.076,6.076,0,0,1-11.122,4.9L90.913,115.4H67l-3.72,8.5A6.076,6.076,0,0,1,52.156,119l5.314-12.147L73.414,70.415a6.078,6.078,0,0,1,5.58-3.644ZM85.6,103.25,78.956,88.028,72.313,103.25H85.6Zm41.945-36.441a6.091,6.091,0,0,1,6.074,6.074v48.588a6.074,6.074,0,0,1-12.147,0V72.882A6.091,6.091,0,0,1,127.544,66.809Z" transform="translate(56.771 56.771)" fill="#c6c6c6" style="mix-blend-mode:color-burn;isolation:isolate"/><circle cx="154" cy="154" r="154" transform="translate(0.242 0.141)" fill="#e0e0e0" style="mix-blend-mode:color-burn;isolation:isolate"/></g><g transform="translate(692.013 292.496)"><path d="M29.209,3.983a3.983,3.983,0,1,0-7.966,0v6.639A10.631,10.631,0,0,0,10.622,21.243H3.983a3.983,3.983,0,1,0,0,7.966h6.639V38.5H3.983a3.983,3.983,0,1,0,0,7.966h6.639v9.294H3.983a3.983,3.983,0,0,0,0,7.966h6.639A10.631,10.631,0,0,0,21.243,74.351V80.99a3.983,3.983,0,0,0,7.966,0V74.351H38.5V80.99a3.983,3.983,0,0,0,7.966,0V74.351h9.294V80.99a3.983,3.983,0,0,0,7.966,0V74.351A10.631,10.631,0,0,0,74.351,63.73H80.99a3.983,3.983,0,0,0,0-7.966H74.351V46.47H80.99a3.983,3.983,0,0,0,0-7.966H74.351V29.209H80.99a3.983,3.983,0,0,0,0-7.966H74.351A10.631,10.631,0,0,0,63.73,10.622V3.983a3.983,3.983,0,0,0-7.966,0v6.639H46.47V3.983a3.983,3.983,0,1,0-7.966,0v6.639H29.209ZM34.52,29.209A2.675,2.675,0,0,1,36.96,30.8l6.97,15.932,2.323,5.311a2.657,2.657,0,1,1-4.863,2.141l-1.643-3.734H29.292L27.666,54.17A2.657,2.657,0,1,1,22.8,52.029l2.323-5.311L32.1,30.786a2.657,2.657,0,0,1,2.44-1.593Zm2.9,15.932-2.9-6.655-2.9,6.655h5.809ZM55.763,29.209a2.663,2.663,0,0,1,2.655,2.655V53.108a2.655,2.655,0,0,1-5.311,0V31.865A2.663,2.663,0,0,1,55.763,29.209Z" transform="translate(24.821 24.821)" fill="#c6c6c6" style="mix-blend-mode:color-burn;isolation:isolate"/><circle cx="67.5" cy="67.5" r="67.5" transform="translate(-0.013 -0.496)" fill="#e0e0e0" style="mix-blend-mode:color-burn;isolation:isolate"/></g><g transform="translate(561.516 250.91)"><path d="M29.209,3.983a3.983,3.983,0,1,0-7.966,0v6.639A10.631,10.631,0,0,0,10.622,21.243H3.983a3.983,3.983,0,1,0,0,7.966h6.639V38.5H3.983a3.983,3.983,0,1,0,0,7.966h6.639v9.294H3.983a3.983,3.983,0,0,0,0,7.966h6.639A10.631,10.631,0,0,0,21.243,74.351V80.99a3.983,3.983,0,0,0,7.966,0V74.351H38.5V80.99a3.983,3.983,0,0,0,7.966,0V74.351h9.294V80.99a3.983,3.983,0,0,0,7.966,0V74.351A10.631,10.631,0,0,0,74.351,63.73H80.99a3.983,3.983,0,0,0,0-7.966H74.351V46.47H80.99a3.983,3.983,0,0,0,0-7.966H74.351V29.209H80.99a3.983,3.983,0,0,0,0-7.966H74.351A10.631,10.631,0,0,0,63.73,10.622V3.983a3.983,3.983,0,0,0-7.966,0v6.639H46.47V3.983a3.983,3.983,0,1,0-7.966,0v6.639H29.209ZM34.52,29.209A2.675,2.675,0,0,1,36.96,30.8l6.97,15.932,2.323,5.311a2.657,2.657,0,1,1-4.863,2.141l-1.643-3.734H29.292L27.666,54.17A2.657,2.657,0,1,1,22.8,52.029l2.323-5.311L32.1,30.786a2.657,2.657,0,0,1,2.44-1.593Zm2.9,15.932-2.9-6.655-2.9,6.655h5.809ZM55.763,29.209a2.663,2.663,0,0,1,2.655,2.655V53.108a2.655,2.655,0,0,1-5.311,0V31.865A2.663,2.663,0,0,1,55.763,29.209Z" transform="translate(24.821 24.821)" fill="#c6c6c6" style="mix-blend-mode:color-burn;isolation:isolate"/><ellipse cx="67" cy="67.5" rx="67" ry="67.5" transform="translate(0.484 0.09)" fill="#e0e0e0" style="mix-blend-mode:color-burn;isolation:isolate"/></g><g transform="translate(684.125 231.55)"><path d="M14.6,1.992a1.992,1.992,0,1,0-3.983,0V5.311a5.316,5.316,0,0,0-5.311,5.311H1.992a1.992,1.992,0,1,0,0,3.983H5.311v4.647H1.992a1.992,1.992,0,1,0,0,3.983H5.311v4.647H1.992a1.992,1.992,0,0,0,0,3.983H5.311a5.316,5.316,0,0,0,5.311,5.311v3.319a1.992,1.992,0,0,0,3.983,0V37.176h4.647v3.319a1.992,1.992,0,0,0,3.983,0V37.176h4.647v3.319a1.992,1.992,0,0,0,3.983,0V37.176a5.316,5.316,0,0,0,5.311-5.311h3.319a1.992,1.992,0,0,0,0-3.983H37.176V23.235h3.319a1.992,1.992,0,0,0,0-3.983H37.176V14.6h3.319a1.992,1.992,0,0,0,0-3.983H37.176a5.316,5.316,0,0,0-5.311-5.311V1.992a1.992,1.992,0,0,0-3.983,0V5.311H23.235V1.992a1.992,1.992,0,1,0-3.983,0V5.311H14.6ZM17.26,14.6a1.338,1.338,0,0,1,1.22.8l3.485,7.966,1.162,2.655a1.328,1.328,0,0,1-2.431,1.07l-.822-1.867H14.646l-.813,1.859a1.328,1.328,0,1,1-2.431-1.07l1.162-2.655,3.485-7.966a1.329,1.329,0,0,1,1.22-.8Zm1.452,7.966L17.26,19.243l-1.452,3.328h2.9ZM27.882,14.6a1.332,1.332,0,0,1,1.328,1.328V26.554a1.328,1.328,0,0,1-2.655,0V15.932A1.332,1.332,0,0,1,27.882,14.6Z" transform="translate(12.41 12.41)" fill="#c6c6c6" style="mix-blend-mode:color-burn;isolation:isolate"/><ellipse cx="34" cy="33.5" rx="34" ry="33.5" transform="translate(-0.125 0.45)" fill="#e0e0e0" style="mix-blend-mode:color-burn;isolation:isolate"/></g><g transform="translate(765.148 420.841)"><path d="M16,2.182a2.182,2.182,0,1,0-4.364,0V5.819a5.825,5.825,0,0,0-5.819,5.819H2.182a2.182,2.182,0,1,0,0,4.364H5.819v5.092H2.182a2.182,2.182,0,1,0,0,4.364H5.819v5.092H2.182a2.182,2.182,0,0,0,0,4.364H5.819a5.825,5.825,0,0,0,5.819,5.819v3.637a2.182,2.182,0,0,0,4.364,0V40.735h5.092v3.637a2.182,2.182,0,0,0,4.364,0V40.735h5.092v3.637a2.182,2.182,0,0,0,4.364,0V40.735a5.825,5.825,0,0,0,5.819-5.819h3.637a2.182,2.182,0,0,0,0-4.364H40.735V25.459h3.637a2.182,2.182,0,0,0,0-4.364H40.735V16h3.637a2.182,2.182,0,0,0,0-4.364H40.735a5.825,5.825,0,0,0-5.819-5.819V2.182a2.182,2.182,0,0,0-4.364,0V5.819H25.459V2.182a2.182,2.182,0,1,0-4.364,0V5.819H16ZM18.913,16a1.466,1.466,0,0,1,1.337.873L24.068,25.6l1.273,2.91a1.455,1.455,0,0,1-2.664,1.173l-.9-2.046H16.049l-.891,2.037a1.455,1.455,0,1,1-2.664-1.173l1.273-2.91,3.819-8.729a1.456,1.456,0,0,1,1.337-.873ZM20.5,24.732l-1.591-3.646-1.591,3.646H20.5ZM30.551,16a1.459,1.459,0,0,1,1.455,1.455V29.1a1.455,1.455,0,1,1-2.91,0V17.458A1.459,1.459,0,0,1,30.551,16Z" transform="translate(13.599 13.599)" fill="#c6c6c6" style="mix-blend-mode:color-burn;isolation:isolate"/><circle cx="37" cy="37" r="37" transform="translate(-0.148 0.159)" fill="#e0e0e0" style="mix-blend-mode:color-burn;isolation:isolate"/></g><g transform="translate(657.596 162)"><path d="M14.6,1.992a1.992,1.992,0,1,0-3.983,0V5.311a5.316,5.316,0,0,0-5.311,5.311H1.992a1.992,1.992,0,1,0,0,3.983H5.311v4.647H1.992a1.992,1.992,0,1,0,0,3.983H5.311v4.647H1.992a1.992,1.992,0,0,0,0,3.983H5.311a5.316,5.316,0,0,0,5.311,5.311v3.319a1.992,1.992,0,0,0,3.983,0V37.176h4.647v3.319a1.992,1.992,0,0,0,3.983,0V37.176h4.647v3.319a1.992,1.992,0,0,0,3.983,0V37.176a5.316,5.316,0,0,0,5.311-5.311h3.319a1.992,1.992,0,0,0,0-3.983H37.176V23.235h3.319a1.992,1.992,0,0,0,0-3.983H37.176V14.6h3.319a1.992,1.992,0,0,0,0-3.983H37.176a5.316,5.316,0,0,0-5.311-5.311V1.992a1.992,1.992,0,0,0-3.983,0V5.311H23.235V1.992a1.992,1.992,0,1,0-3.983,0V5.311H14.6ZM17.26,14.6a1.338,1.338,0,0,1,1.22.8l3.485,7.966,1.162,2.655a1.328,1.328,0,0,1-2.431,1.07l-.822-1.867H14.646l-.813,1.859a1.328,1.328,0,1,1-2.431-1.07l1.162-2.655,3.485-7.966a1.329,1.329,0,0,1,1.22-.8Zm1.452,7.966L17.26,19.243l-1.452,3.328h2.9ZM27.882,14.6a1.332,1.332,0,0,1,1.328,1.328V26.554a1.328,1.328,0,0,1-2.655,0V15.932A1.332,1.332,0,0,1,27.882,14.6Z" transform="translate(12.41 12.41)" fill="#c6c6c6" style="mix-blend-mode:color-burn;isolation:isolate"/><circle cx="33.5" cy="33.5" r="33.5" transform="translate(0.404)" fill="#e0e0e0" style="mix-blend-mode:color-burn;isolation:isolate"/></g></g></svg>

<svg xmlns="http://www.w3.org/2000/svg" xmlns:xlink="http://www.w3.org/1999/xlink" width="800" height="800" viewBox="0 0 800 800"><defs><radialGradient id="a" cx="2.411" cy="1.417" r="2.475" gradientTransform="matrix(1 0 0 .963 0 -.007)" gradientUnits="objectBoundingBox"><stop offset="0" stop-color="#3c9bcd"/><stop offset="1" stop-color="#e7eff3"/></radialGradient><radialGradient id="b" cx="0.5" cy="0.5" r="0.5" gradientUnits="objectBoundingBox"><stop offset="0" stop-color="#fff"/><stop offset="1" stop-color="#fff" stop-opacity="0"/></radialGradient><clipPath id="d"><path d="M0 0h800v800H0z"/></clipPath></defs><g id="c" clip-path="url(#d)"><path fill="url(#a)" d="M0 0h800v800H0z"/><circle cx="322" cy="322" r="322" fill="url(#b)" opacity="0.888" transform="translate(-77 -13)"/><g transform="translate(474.758 387.859)"><path fill="#c6c6c6" d="M66.8 9.11a9.11 9.11 0 1 0-18.21 0v15.18a24.3 24.3 0 0 0-24.3 24.3H9.11a9.11 9.11 0 1 0 0 18.22h15.18v21.26H9.11a9.11 9.11 0 0 0 0 18.22h15.18v21.25H9.11a9.11 9.11 0 0 0 0 18.23h15.18a24.3 24.3 0 0 0 24.3 24.29v15.18a9.11 9.11 0 0 0 18.22 0v-15.18h21.26v15.18a9.11 9.11 0 0 0 18.22 0v-15.18h21.25v15.18a9.11 9.11 0 0 0 18.23 0v-15.18a24.3 24.3 0 0 0 24.29-24.3h15.18a9.11 9.11 0 0 0 0-18.22h-15.18V106.3h15.18a9.11 9.11 0 0 0 0-18.22h-15.18V66.8h15.18a9.11 9.11 0 0 0 0-18.22h-15.18a24.3 24.3 0 0 0-24.3-24.3V9.11a9.11 9.11 0 0 0-18.22 0v15.18H106.3V9.11a9.11 9.11 0 0 0-18.22 0v15.18H66.8Zm12.16 57.7a6.1 6.1 0 0 1 5.58 3.64l15.94 36.45 5.31 12.14a6.08 6.08 0 0 1-11.12 4.9l-3.76-8.54H67l-3.72 8.5a6.08 6.08 0 0 1-11.12-4.9l5.31-12.15 15.94-36.43A6.1 6.1 0 0 1 79 66.77Zm6.64 36.44-6.64-15.22-6.65 15.22zm41.95-36.44a6.1 6.1 0 0 1 6.07 6.07v48.6a6.07 6.07 0 0 1-12.15 0v-48.6a6.1 6.1 0 0 1 6.07-6.07" style="mix-blend-mode:color-burn;isolation:isolate" transform="translate(56.771 56.771)"/><circle cx="154" cy="154" r="154" fill="#e0e0e0" style="mix-blend-mode:color-burn;isolation:isolate" transform="translate(.242 .141)"/></g><g transform="translate(692.013 292.496)"><path fill="#c6c6c6" d="M29.2 3.98a3.98 3.98 0 1 0-7.96 0v6.64a10.63 10.63 0 0 0-10.62 10.62H3.98a3.98 3.98 0 1 0 0 7.97h6.64v9.29H3.98a3.98 3.98 0 1 0 0 7.97h6.64v9.29H3.98a3.98 3.98 0 0 0 0 7.97h6.64a10.63 10.63 0 0 0 10.62 10.62V81a3.98 3.98 0 0 0 7.97 0v-6.64h9.29V81a3.98 3.98 0 0 0 7.97 0v-6.64h9.29V81a3.98 3.98 0 0 0 7.97 0v-6.64a10.63 10.63 0 0 0 10.62-10.62H81a3.98 3.98 0 0 0 0-7.97h-6.64v-9.29H81a3.98 3.98 0 0 0 0-7.97h-6.64v-9.3H81a3.98 3.98 0 0 0 0-7.96h-6.64a10.63 10.63 0 0 0-10.62-10.62V3.98a3.98 3.98 0 0 0-7.97 0v6.64h-9.29V3.98a3.98 3.98 0 1 0-7.97 0v6.64h-9.3Zm5.32 25.23a2.7 2.7 0 0 1 2.44 1.59l6.97 15.93 2.32 5.31a2.66 2.66 0 1 1-4.86 2.14l-1.64-3.73H29.29l-1.62 3.72a2.66 2.66 0 1 1-4.87-2.14l2.32-5.31 6.98-15.93a2.7 2.7 0 0 1 2.44-1.6Zm2.9 15.93-2.9-6.65-2.9 6.65zm18.34-15.93a2.66 2.66 0 0 1 2.66 2.65v21.25a2.66 2.66 0 0 1-5.31 0V31.87a2.66 2.66 0 0 1 2.65-2.66" style="mix-blend-mode:color-burn;isolation:isolate" transform="translate(24.821 24.821)"/><circle cx="67.5" cy="67.5" r="67.5" fill="#e0e0e0" style="mix-blend-mode:color-burn;isolation:isolate" transform="translate(-.013 -.496)"/></g><g transform="translate(561.516 250.91)"><path fill="#c6c6c6" d="M29.2 3.98a3.98 3.98 0 1 0-7.96 0v6.64a10.63 10.63 0 0 0-10.62 10.62H3.98a3.98 3.98 0 1 0 0 7.97h6.64v9.29H3.98a3.98 3.98 0 1 0 0 7.97h6.64v9.29H3.98a3.98 3.98 0 0 0 0 7.97h6.64a10.63 10.63 0 0 0 10.62 10.62V81a3.98 3.98 0 0 0 7.97 0v-6.64h9.29V81a3.98 3.98 0 0 0 7.97 0v-6.64h9.29V81a3.98 3.98 0 0 0 7.97 0v-6.64a10.63 10.63 0 0 0 10.62-10.62H81a3.98 3.98 0 0 0 0-7.97h-6.64v-9.29H81a3.98 3.98 0 0 0 0-7.97h-6.64v-9.3H81a3.98 3.98 0 0 0 0-7.96h-6.64a10.63 10.63 0 0 0-10.62-10.62V3.98a3.98 3.98 0 0 0-7.97 0v6.64h-9.29V3.98a3.98 3.98 0 1 0-7.97 0v6.64h-9.3Zm5.32 25.23a2.7 2.7 0 0 1 2.44 1.59l6.97 15.93 2.32 5.31a2.66 2.66 0 1 1-4.86 2.14l-1.64-3.73H29.29l-1.62 3.72a2.66 2.66 0 1 1-4.87-2.14l2.32-5.31 6.98-15.93a2.7 2.7 0 0 1 2.44-1.6Zm2.9 15.93-2.9-6.65-2.9 6.65zm18.34-15.93a2.66 2.66 0 0 1 2.66 2.65v21.25a2.66 2.66 0 0 1-5.31 0V31.87a2.66 2.66 0 0 1 2.65-2.66" style="mix-blend-mode:color-burn;isolation:isolate" transform="translate(24.821 24.821)"/><ellipse cx="67" cy="67.5" fill="#e0e0e0" rx="67" ry="67.5" style="mix-blend-mode:color-burn;isolation:isolate" transform="translate(.484 .09)"/></g><g transform="translate(684.125 231.55)"><path fill="#c6c6c6" d="M14.6 2a2 2 0 1 0-3.98 0v3.3a5.3 5.3 0 0 0-5.31 5.31H1.99a2 2 0 1 0 0 3.99h3.32v4.64H2a2 2 0 1 0 0 3.99h3.32v4.64H2a2 2 0 0 0 0 3.99h3.32a5.3 5.3 0 0 0 5.31 5.3v3.33a2 2 0 0 0 3.99 0v-3.32h4.64v3.32a2 2 0 0 0 3.99 0v-3.32h4.64v3.32a2 2 0 0 0 3.99 0v-3.32a5.3 5.3 0 0 0 5.3-5.31h3.33a2 2 0 0 0 0-3.99h-3.32v-4.64h3.32a2 2 0 0 0 0-3.99h-3.32V14.6h3.32a2 2 0 0 0 0-3.98h-3.32a5.3 5.3 0 0 0-5.31-5.31V1.99a2 2 0 0 0-3.99 0v3.32h-4.64V2a2 2 0 1 0-3.99 0v3.32H14.6Zm2.66 12.6a1.3 1.3 0 0 1 1.22.8l3.49 7.97 1.16 2.65a1.33 1.33 0 0 1-2.43 1.07l-.83-1.87h-5.22l-.82 1.86a1.33 1.33 0 1 1-2.43-1.07l1.16-2.65 3.49-7.97a1.3 1.3 0 0 1 1.22-.8Zm1.45 7.97-1.45-3.33-1.45 3.33zm9.17-7.97a1.33 1.33 0 0 1 1.33 1.33v10.62a1.33 1.33 0 0 1-2.65 0V15.93a1.33 1.33 0 0 1 1.32-1.33" style="mix-blend-mode:color-burn;isolation:isolate" transform="translate(12.41 12.41)"/><ellipse cx="34" cy="33.5" fill="#e0e0e0" rx="34" ry="33.5" style="mix-blend-mode:color-burn;isolation:isolate" transform="translate(-.125 .45)"/></g><g transform="translate(765.148 420.841)"><path fill="#c6c6c6" d="M16 2.18a2.18 2.18 0 1 0-4.36 0v3.64a5.83 5.83 0 0 0-5.82 5.82H2.18a2.18 2.18 0 1 0 0 4.36h3.64v5.1H2.18a2.18 2.18 0 1 0 0 4.36h3.64v5.09H2.18a2.18 2.18 0 0 0 0 4.36h3.64a5.83 5.83 0 0 0 5.82 5.82v3.64a2.18 2.18 0 0 0 4.36 0v-3.63h5.1v3.63a2.18 2.18 0 0 0 4.36 0v-3.63h5.09v3.63a2.18 2.18 0 0 0 4.36 0v-3.63a5.83 5.83 0 0 0 5.82-5.82h3.64a2.18 2.18 0 0 0 0-4.37h-3.63v-5.1h3.63a2.18 2.18 0 0 0 0-4.35h-3.63V16h3.63a2.18 2.18 0 0 0 0-4.36h-3.63a5.83 5.83 0 0 0-5.82-5.82V2.18a2.18 2.18 0 0 0-4.37 0v3.64h-5.1V2.18a2.18 2.18 0 1 0-4.35 0v3.64H16ZM18.91 16a1.5 1.5 0 0 1 1.34.87l3.82 8.73 1.27 2.91a1.46 1.46 0 0 1-2.66 1.17l-.9-2.04h-5.73l-.9 2.03a1.46 1.46 0 1 1-2.66-1.17l1.28-2.9 3.82-8.74a1.5 1.5 0 0 1 1.33-.87Zm1.59 8.73-1.6-3.64-1.58 3.64zM30.55 16a1.46 1.46 0 0 1 1.46 1.46V29.1a1.46 1.46 0 1 1-2.91 0V17.46A1.46 1.46 0 0 1 30.55 16" style="mix-blend-mode:color-burn;isolation:isolate" transform="translate(13.599 13.599)"/><circle cx="37" cy="37" r="37" fill="#e0e0e0" style="mix-blend-mode:color-burn;isolation:isolate" transform="translate(-.148 .159)"/></g><g transform="translate(657.596 162)"><path fill="#c6c6c6" d="M14.6 2a2 2 0 1 0-3.98 0v3.3a5.3 5.3 0 0 0-5.31 5.31H1.99a2 2 0 1 0 0 3.99h3.32v4.64H2a2 2 0 1 0 0 3.99h3.32v4.64H2a2 2 0 0 0 0 3.99h3.32a5.3 5.3 0 0 0 5.31 5.3v3.33a2 2 0 0 0 3.99 0v-3.32h4.64v3.32a2 2 0 0 0 3.99 0v-3.32h4.64v3.32a2 2 0 0 0 3.99 0v-3.32a5.3 5.3 0 0 0 5.3-5.31h3.33a2 2 0 0 0 0-3.99h-3.32v-4.64h3.32a2 2 0 0 0 0-3.99h-3.32V14.6h3.32a2 2 0 0 0 0-3.98h-3.32a5.3 5.3 0 0 0-5.31-5.31V1.99a2 2 0 0 0-3.99 0v3.32h-4.64V2a2 2 0 1 0-3.99 0v3.32H14.6Zm2.66 12.6a1.3 1.3 0 0 1 1.22.8l3.49 7.97 1.16 2.65a1.33 1.33 0 0 1-2.43 1.07l-.83-1.87h-5.22l-.82 1.86a1.33 1.33 0 1 1-2.43-1.07l1.16-2.65 3.49-7.97a1.3 1.3 0 0 1 1.22-.8Zm1.45 7.97-1.45-3.33-1.45 3.33zm9.17-7.97a1.33 1.33 0 0 1 1.33 1.33v10.62a1.33 1.33 0 0 1-2.65 0V15.93a1.33 1.33 0 0 1 1.32-1.33" style="mix-blend-mode:color-burn;isolation:isolate" transform="translate(12.41 12.41)"/><circle cx="33.5" cy="33.5" r="33.5" fill="#e0e0e0" style="mix-blend-mode:color-burn;isolation:isolate" transform="translate(.404)"/></g></g></svg>
